X: 11
T:Rocky Road to Dublin
R:slip jig
S:Mike Long
O:Ireland
M:9/8
K:G
"Am" e=fe "G" d2 B "Am" A3 | "Am" E2 A   A2  A "G" Bcd | "Am" e=fe "G" d2 B "Am" A2 c | "G" B2 A G2 A Bcd :|
"Am" e2 a {b}a2  f  "G" g3 | "Am" e2 a {b}a2 A "G" Bcd | "Am" e2  a  {b}a2  f  "C" g3 | "G" d2 B G2 A Bcd |
"Am" e2 a {b}a2  f  "G" g3 | "Am" e2 a {b}a2 A "G" Bcd | "Em/C"    efg    fga    gfe  | "G" d2 B G2 A Bcd ||
